img/waydroid.svg

<?xml version="1.0" encoding="UTF-8"?>
<!DOCTYPE svg PUBLIC "-//W3C//DTD SVG 1.1//EN" "http://www.w3.org/Graphics/SVG/1.1/DTD/svg11.dtd">
<svg xmlns="http://www.w3.org/2000/svg" version="1.1" width="200px" height="200px" style="shape-rendering:geometricPrecision; text-rendering:geometricPrecision; image-rendering:optimizeQuality; fill-rule:evenodd; clip-rule:evenodd" xmlns:xlink="http://www.w3.org/1999/xlink">
<g><path style="opacity:0.999" fill="#3dd782" d="M 160.5,90.5 C 157.061,90.2529 153.728,90.5863 150.5,91.5C 143.835,92.4997 137.168,93.4997 130.5,94.5C 123.239,95.7499 115.905,96.7499 108.5,97.5C 102.5,97.5 96.5,97.5 90.5,97.5C 83.1451,97.0518 75.8117,96.3852 68.5,95.5C 62.0108,93.8995 55.3441,92.5661 48.5,91.5C 45.1148,90.372 41.7814,90.372 38.5,91.5C 41.0184,74.3907 49.0184,60.5573 62.5,50C 58.5573,45.2968 54.7239,40.4635 51,35.5C 49.6714,29.1658 52.1714,26.3325 58.5,27C 63.4043,32.5624 68.2376,38.0624 73,43.5C 90.6667,35.5 108.333,35.5 126,43.5C 130.762,38.0624 135.596,32.5624 140.5,27C 146.829,26.3325 149.329,29.1658 148,35.5C 144.276,40.4635 140.443,45.2968 136.5,50C 149.989,60.129 157.989,73.629 160.5,90.5 Z"/></g>
<g><path style="opacity:0.997" fill="#f8bf07" d="M 48.5,91.5 C 53.8933,108.18 59.3933,124.847 65,141.5C 65.6797,143.513 67.013,144.846 69,145.5C 79.308,135.358 89.4746,125.025 99.5,114.5C 109.322,124.489 118.988,134.656 128.5,145C 129.5,145.667 130.5,145.667 131.5,145C 133.901,141.477 135.734,137.644 137,133.5C 141.405,119.451 145.905,105.451 150.5,91.5C 153.728,90.5863 157.061,90.2529 160.5,90.5C 162.865,112.917 155.865,131.75 139.5,147C 112.795,166.326 86.128,166.326 59.5,147C 43.3364,132.014 36.3364,113.514 38.5,91.5C 41.7814,90.372 45.1148,90.372 48.5,91.5 Z"/></g>
<g><path style="opacity:1" fill="#fefefc" d="M 48.5,91.5 C 55.3441,92.5661 62.0108,93.8995 68.5,95.5C 70.187,102.245 72.187,108.912 74.5,115.5C 80.3008,109.885 85.6341,103.885 90.5,97.5C 96.5,97.5 102.5,97.5 108.5,97.5C 113.52,104.176 119.02,110.509 125,116.5C 126.838,109.148 128.671,101.814 130.5,94.5C 137.168,93.4997 143.835,92.4997 150.5,91.5C 145.905,105.451 141.405,119.451 137,133.5C 135.734,137.644 133.901,141.477 131.5,145C 130.5,145.667 129.5,145.667 128.5,145C 118.988,134.656 109.322,124.489 99.5,114.5C 89.4746,125.025 79.308,135.358 69,145.5C 67.013,144.846 65.6797,143.513 65,141.5C 59.3933,124.847 53.8933,108.18 48.5,91.5 Z"/></g>
<g><path style="opacity:1" fill="#ffc513" d="M 68.5,95.5 C 75.8117,96.3852 83.1451,97.0518 90.5,97.5C 85.6341,103.885 80.3008,109.885 74.5,115.5C 72.187,108.912 70.187,102.245 68.5,95.5 Z"/></g>
<g><path style="opacity:1" fill="#fdc616" d="M 130.5,94.5 C 128.671,101.814 126.838,109.148 125,116.5C 119.02,110.509 113.52,104.176 108.5,97.5C 115.905,96.7499 123.239,95.7499 130.5,94.5 Z"/></g>
</svg>

<svg xmlns="http://www.w3.org/2000/svg" width="200" height="200" style="shape-rendering:geometricPrecision;text-rendering:geometricPrecision;image-rendering:optimizeQuality;fill-rule:evenodd;clip-rule:evenodd"><path fill="#3dd782" d="M160.5 90.5q-5.158-.37-10 1l-20 3a319 319 0 0 1-22 3h-18a371 371 0 0 1-22-2 234 234 0 0 0-20-4q-5.078-1.692-10 0 3.777-25.665 24-41.5A343 343 0 0 1 51 35.5Q49.007 26 58.5 27A6644 6644 0 0 1 73 43.5q26.5-12 53 0A6623 6623 0 0 1 140.5 27q9.494-1.001 7.5 8.5A343 343 0 0 1 136.5 50q20.233 15.194 24 40.5" style="opacity:.999"/><path fill="#f8bf07" d="M48.5 91.5a4377 4377 0 0 0 16.5 50q1.02 3.02 4 4a1341 1341 0 0 0 30.5-31 1258 1258 0 0 1 29 30.5q1.5 1 3 0a42.2 42.2 0 0 0 5.5-11.5 3077 3077 0 0 1 13.5-42q4.842-1.37 10-1 3.548 33.625-21 56.5-40.058 28.989-80 0-24.246-22.479-21-55.5 4.922-1.692 10 0" style="opacity:.997"/><path fill="#fefefc" d="M48.5 91.5q10.266 1.6 20 4a226 226 0 0 0 6 20 160 160 0 0 0 16-18h18a180 180 0 0 0 16.5 19l5.5-22 20-3a3077 3077 0 0 0-13.5 42 42.2 42.2 0 0 1-5.5 11.5q-1.5 1-3 0a1258 1258 0 0 0-29-30.5 1341 1341 0 0 1-30.5 31q-2.98-.98-4-4a4377 4377 0 0 1-16.5-50" style="opacity:1"/><path fill="#ffc513" d="M68.5 95.5a371 371 0 0 0 22 2 160 160 0 0 1-16 18 226 226 0 0 1-6-20" style="opacity:1"/><path fill="#fdc616" d="m130.5 94.5-5.5 22a180 180 0 0 1-16.5-19 319 319 0 0 0 22-3" style="opacity:1"/></svg>
